inst/assets/svg/wi-night-thunderstorm.svg

<?xml version="1.0" encoding="UTF-8"?>
<svg xmlns="http://www.w3.org/2000/svg" xmlns:xlink="http://www.w3.org/1999/xlink" width="30pt" height="30pt" viewBox="0 0 30 30" version="1.1">
<g id="surface796">
<path style=" stroke:none;fill-rule:nonzero;fill:rgb(0%,0%,0%);fill-opacity:1;" d="M 4.28125 16.890625 C 4.28125 18 4.609375 19 5.269531 19.871094 C 5.929688 20.738281 6.789063 21.328125 7.828125 21.621094 L 7.191406 23.300781 C 7.140625 23.441406 7.191406 23.519531 7.328125 23.519531 L 9.449219 23.519531 L 8.410156 27.710938 L 8.691406 27.710938 L 12.660156 22.089844 C 12.699219 22.050781 12.699219 22 12.671875 21.949219 C 12.640625 21.898438 12.589844 21.878906 12.519531 21.878906 L 10.351563 21.878906 L 12.820313 17.269531 C 12.890625 17.128906 12.839844 17.050781 12.679688 17.050781 L 9.738281 17.050781 C 9.648438 17.050781 9.578125 17.101563 9.511719 17.191406 L 8.441406 20.058594 C 7.730469 19.890625 7.140625 19.5 6.671875 18.921875 C 6.199219 18.339844 5.96875 17.660156 5.96875 16.898438 C 5.96875 16.070313 6.25 15.351563 6.808594 14.738281 C 7.371094 14.128906 8.070313 13.78125 8.910156 13.679688 L 9.441406 13.640625 C 9.558594 13.640625 9.621094 13.578125 9.621094 13.460938 L 9.691406 12.929688 C 9.761719 12.21875 9.988281 11.578125 10.378906 10.988281 C 10.769531 10.410156 11.28125 9.949219 11.898438 9.621094 C 12.519531 9.289063 13.191406 9.121094 13.910156 9.121094 C 14.988281 9.121094 15.941406 9.488281 16.75 10.21875 C 17.558594 10.949219 18.019531 11.851563 18.140625 12.929688 L 18.21875 13.488281 C 18.21875 13.609375 18.28125 13.679688 18.390625 13.679688 L 20.011719 13.679688 C 20.898438 13.679688 21.660156 14 22.308594 14.640625 C 22.960938 15.28125 23.28125 16.03125 23.28125 16.910156 C 23.28125 17.769531 22.980469 18.519531 22.378906 19.160156 C 21.78125 19.800781 21.050781 20.128906 20.199219 20.179688 C 20.070313 20.179688 20 20.238281 20 20.359375 L 20 21.699219 C 20 21.808594 20.070313 21.871094 20.199219 21.871094 C 21.070313 21.851563 21.871094 21.609375 22.601563 21.148438 C 23.328125 20.699219 23.910156 20.101563 24.320313 19.351563 C 24.730469 18.601563 24.949219 17.789063 24.949219 16.921875 C 24.949219 16.191406 24.808594 15.519531 24.53125 14.910156 C 25.308594 13.980469 25.699219 12.878906 25.699219 11.601563 C 25.699219 10.890625 25.558594 10.21875 25.28125 9.578125 C 25 8.941406 24.628906 8.378906 24.160156 7.910156 C 23.691406 7.441406 23.140625 7.070313 22.488281 6.789063 C 21.851563 6.511719 21.171875 6.371094 20.46875 6.371094 C 18.929688 6.371094 17.640625 6.949219 16.609375 8.101563 C 15.800781 7.671875 14.898438 7.449219 13.910156 7.449219 C 12.5 7.449219 11.25 7.890625 10.160156 8.761719 C 9.070313 9.628906 8.371094 10.75 8.058594 12.109375 C 6.960938 12.371094 6.050781 12.941406 5.328125 13.839844 C 4.609375 14.738281 4.28125 15.738281 4.28125 16.890625 Z M 12.210938 26.769531 C 12.210938 26.929688 12.261719 27.089844 12.359375 27.230469 C 12.460938 27.371094 12.609375 27.480469 12.808594 27.539063 L 13.058594 27.570313 C 13.480469 27.570313 13.738281 27.371094 13.859375 26.96875 L 16.289063 18.078125 C 16.351563 17.851563 16.328125 17.628906 16.21875 17.441406 C 16.109375 17.238281 15.949219 17.109375 15.730469 17.039063 C 15.5 16.96875 15.28125 16.988281 15.078125 17.101563 C 14.878906 17.210938 14.738281 17.378906 14.679688 17.601563 L 12.230469 26.5 C 12.21875 26.671875 12.210938 26.761719 12.210938 26.769531 Z M 16.351563 23.738281 C 16.351563 24.140625 16.558594 24.410156 16.96875 24.539063 C 17.140625 24.558594 17.230469 24.570313 17.230469 24.570313 C 17.339844 24.570313 17.460938 24.550781 17.578125 24.488281 C 17.78125 24.398438 17.921875 24.21875 18 23.941406 L 19.640625 18.089844 C 19.699219 17.859375 19.679688 17.640625 19.558594 17.449219 C 19.449219 17.25 19.28125 17.121094 19.050781 17.050781 C 18.820313 16.980469 18.601563 17 18.398438 17.109375 C 18.199219 17.21875 18.070313 17.390625 18.011719 17.609375 L 16.390625 23.5 C 16.371094 23.640625 16.351563 23.71875 16.351563 23.738281 Z M 18.019531 9.039063 C 18.699219 8.398438 19.519531 8.078125 20.5 8.078125 C 21.46875 8.078125 22.300781 8.421875 22.980469 9.101563 C 23.671875 9.78125 24.011719 10.609375 24.011719 11.578125 C 24.011719 12.210938 23.839844 12.828125 23.5 13.429688 C 22.539063 12.46875 21.378906 11.988281 20.019531 11.988281 L 19.699219 11.988281 C 19.421875 10.839844 18.859375 9.859375 18.019531 9.039063 Z M 18.019531 9.039063 "/>
</g>
</svg>

<?xml version="1.0" encoding="utf-8"?>
<!-- Generator: Adobe Illustrator 22.0.1, SVG Export Plug-In . SVG Version: 6.00 Build 0)  -->
<svg version="1.1" id="Layer_1" xmlns="http://www.w3.org/2000/svg" xmlns:xlink="http://www.w3.org/1999/xlink" x="0px" y="0px"
	 viewBox="0 0 30 30" style="enable-background:new 0 0 30 30;" xml:space="preserve">
<path d="M4.28,16.89c0,1.11,0.33,2.11,0.99,2.98s1.52,1.46,2.56,1.75l-0.64,1.68c-0.05,0.14,0,0.22,0.14,0.22h2.12l-1.04,4.19h0.28
	l3.97-5.62c0.04-0.04,0.04-0.09,0.01-0.14c-0.03-0.05-0.08-0.07-0.15-0.07h-2.17l2.47-4.61c0.07-0.14,0.02-0.22-0.14-0.22H9.74
	c-0.09,0-0.16,0.05-0.23,0.14l-1.07,2.87c-0.71-0.17-1.3-0.56-1.77-1.14s-0.7-1.26-0.7-2.02c0-0.83,0.28-1.55,0.84-2.16
	s1.26-0.96,2.1-1.06l0.53-0.04c0.12,0,0.18-0.06,0.18-0.18l0.07-0.53c0.07-0.71,0.3-1.35,0.69-1.94c0.39-0.58,0.9-1.04,1.52-1.37
	s1.29-0.5,2.01-0.5c1.08,0,2.03,0.37,2.84,1.1c0.81,0.73,1.27,1.63,1.39,2.71l0.08,0.56c0,0.12,0.06,0.19,0.17,0.19h1.62
	c0.89,0,1.65,0.32,2.3,0.96s0.97,1.39,0.97,2.27c0,0.86-0.3,1.61-0.9,2.25s-1.33,0.97-2.18,1.02c-0.13,0-0.2,0.06-0.2,0.18v1.34
	c0,0.11,0.07,0.17,0.2,0.17c0.87-0.02,1.67-0.26,2.4-0.72c0.73-0.45,1.31-1.05,1.72-1.8s0.63-1.56,0.63-2.43
	c0-0.73-0.14-1.4-0.42-2.01c0.78-0.93,1.17-2.03,1.17-3.31c0-0.71-0.14-1.38-0.42-2.02c-0.28-0.64-0.65-1.2-1.12-1.67
	c-0.47-0.47-1.02-0.84-1.67-1.12c-0.64-0.28-1.32-0.42-2.02-0.42c-1.54,0-2.83,0.58-3.86,1.73c-0.81-0.43-1.71-0.65-2.7-0.65
	c-1.41,0-2.66,0.44-3.75,1.31s-1.79,1.99-2.1,3.35c-1.1,0.26-2.01,0.83-2.73,1.73S4.28,15.74,4.28,16.89z M12.21,26.77
	c0,0.16,0.05,0.32,0.15,0.46s0.25,0.25,0.45,0.31l0.25,0.03c0.42,0,0.68-0.2,0.8-0.6l2.43-8.89c0.06-0.23,0.04-0.45-0.07-0.64
	c-0.11-0.2-0.27-0.33-0.49-0.4c-0.23-0.07-0.45-0.05-0.65,0.06c-0.2,0.11-0.34,0.28-0.4,0.5l-2.45,8.9
	C12.22,26.67,12.21,26.76,12.21,26.77z M16.35,23.74c0,0.4,0.21,0.67,0.62,0.8c0.17,0.02,0.26,0.03,0.26,0.03
	c0.11,0,0.23-0.02,0.35-0.08c0.2-0.09,0.34-0.27,0.42-0.55l1.64-5.85c0.06-0.23,0.04-0.45-0.08-0.64c-0.11-0.2-0.28-0.33-0.51-0.4
	c-0.23-0.07-0.45-0.05-0.65,0.06c-0.2,0.11-0.33,0.28-0.39,0.5l-1.62,5.89C16.37,23.64,16.35,23.72,16.35,23.74z M18.02,9.04
	c0.68-0.64,1.5-0.96,2.48-0.96c0.97,0,1.8,0.34,2.48,1.02c0.69,0.68,1.03,1.51,1.03,2.48c0,0.63-0.17,1.25-0.51,1.85
	c-0.96-0.96-2.12-1.44-3.48-1.44h-0.32C19.42,10.84,18.86,9.86,18.02,9.04z"/>
</svg>
